X: 29202
T: New Custom House, The
R: reel
M: 4/4
K: Dmixolydian
|:AD (3FED =FGAB|cAGE CEGc|ADFD =FGAB|c2 ec dcAG|
AD (3FED =FGAB|cAGE CEGc|ADFD =FGAB|cAGE ED D2:|
|:Ad d2 Adfd|ec c2 ef g2|Ad d2 Adfa|gfec fdec|
Ad d2 Adfd|ec c2 efgf|afge d (3ABc d|eaag ed d2:|

